; G-Code generated by Simplify3D(R) Version 3.1.1
; Mar 9, 2017 at 3:41:14 PM
; Settings Summary
;   processName,Process1
;   applyToModels,30mm cube
;   profileName,Original Prusa I3 MK2 (modified)
;   profileVersion,2017-03-08 15:38:47
;   baseProfile,Prusa Mendel (modified)
;   printMaterial,PLA
;   printQuality,NORMAL 0.2mm
;   printExtruders,
;   extruderName,Primary Extruder
;   extruderToolheadNumber,0
;   extruderDiameter,0.4
;   extruderAutoWidth,0
;   extruderWidth,0.45
;   extrusionMultiplier,1
;   extruderUseRetract,1
;   extruderRetractionDistance,0.8
;   extruderExtraRestartDistance,0
;   extruderRetractionZLift,0
;   extruderRetractionSpeed,1800
;   extruderUseCoasting,1
;   extruderCoastingDistance,0.2
;   extruderUseWipe,1
;   extruderWipeDistance,2
;   primaryExtruder,0
;   layerHeight,0.2
;   topSolidLayers,4
;   bottomSolidLayers,3
;   perimeterOutlines,3
;   printPerimetersInsideOut,1
;   startPointOption,2
;   startPointOriginX,0
;   startPointOriginY,0
;   startPointOriginZ,300
;   sequentialIslands,0
;   spiralVaseMode,0
;   firstLayerHeightPercentage,100
;   firstLayerWidthPercentage,100
;   firstLayerUnderspeed,0.5
;   useRaft,0
;   raftExtruder,0
;   raftLayers,3
;   raftOffset,3
;   raftSeparationDistance,0.14
;   raftInfill,90
;   disableRaftBaseLayers,0
;   useSkirt,1
;   skirtExtruder,0
;   skirtLayers,1
;   skirtOutlines,1
;   skirtOffset,4
;   usePrimePillar,0
;   primePillarExtruder,999
;   primePillarWidth,12
;   primePillarLocation,7
;   primePillarSpeedMultiplier,1
;   useOozeShield,0
;   oozeShieldExtruder,999
;   oozeShieldOffset,2
;   oozeShieldOutlines,1
;   oozeShieldSidewallShape,1
;   oozeShieldSidewallAngle,30
;   oozeShieldSpeedMultiplier,1
;   infillExtruder,0
;   internalInfillPattern,Grid
;   externalInfillPattern,Rectilinear
;   infillPercentage,2
;   outlineOverlapPercentage,25
;   infillExtrusionWidthPercentage,100
;   minInfillLength,2
;   infillLayerInterval,1
;   infillAngles,45,-45
;   overlapInfillAngles,1
;   generateSupport,1
;   supportExtruder,0
;   supportInfillPercentage,30
;   supportExtraInflation,0
;   denseSupportLayers,0
;   denseSupportInfillPercentage,70
;   supportLayerInterval,1
;   supportHorizontalPartOffset,0.5
;   supportUpperSeparationLayers,1
;   supportLowerSeparationLayers,1
;   supportType,0
;   supportGridSpacing,4
;   maxOverhangAngle,45
;   supportAngles,45
;   temperatureName,Primary Extruder,Heated Bed
;   temperatureNumber,0,1
;   temperatureSetpointCount,1,1
;   temperatureSetpointLayers,1,1
;   temperatureSetpointTemperatures,210,60
;   temperatureStabilizeAtStartup,0,0
;   temperatureHeatedBed,0,1
;   temperatureRelayBetweenLayers,0,0
;   temperatureRelayBetweenLoops,0,0
;   fanLayers,1,2
;   fanSpeeds,0,100
;   blipFanToFullPower,1
;   adjustSpeedForCooling,0
;   minSpeedLayerTime,15
;   minCoolingSpeedSlowdown,50
;   increaseFanForCooling,1
;   minFanLayerTime,15
;   maxCoolingFanSpeed,70
;   increaseFanForBridging,1
;   bridgingFanSpeed,70
;   use5D,1
;   relativeEdistances,1
;   allowEaxisZeroing,1
;   independentExtruderAxes,0
;   includeM10123,0
;   stickySupport,1
;   applyToolheadOffsets,0
;   gcodeXoffset,0
;   gcodeYoffset,0
;   gcodeZoffset,0
;   overrideMachineDefinition,1
;   machineTypeOverride,0
;   strokeXoverride,250
;   strokeYoverride,210
;   strokeZoverride,200
;   originOffsetXoverride,0
;   originOffsetYoverride,0
;   originOffsetZoverride,0
;   homeXdirOverride,-1
;   homeYdirOverride,-1
;   homeZdirOverride,-1
;   flipXoverride,1
;   flipYoverride,-1
;   flipZoverride,1
;   toolheadOffsets,0,0|0,0|0,0|0,0|0,0|0,0
;   overrideFirmwareConfiguration,0
;   firmwareTypeOverride,RepRap (Marlin/Repetier/Sprinter)
;   GPXconfigOverride,r2
;   baudRateOverride,250000
;   overridePrinterModels,1
;   printerModelsOverride
;   startingGcode,M117 Starting...,M107 ; start with the fan off,,; preheat,M140 S[bed1_temperature] T1 ; heat build platform,M104 S[extruder0_temperature] T0 ; heat extruder 1,,; home and autolevel,G28 W ; home without mesh bed level,G80 ; probe bed,,; park for preheat,G1 Y-3 X0 F3600 ; park location,G1 Z0.1 F1000; drop nozzle to bed to help restrict oozing,; wait for heating to finish,M109 S[extruder0_temperature] T0 ; wait for extruder 1 to heat,M190 S[bed1_temperature] T1 ; wait for build platform to heat,,G1 Z15 F3600 ; lift the head,G1 X10 F3600 ; move to prep location,,; perform wipe and prime,; select tool,M117 Prime E1,G92 E0 ; zero the extruded length,G1 Z0.1 F1000,G1 X70 E9 F1000 ; prime,G1 X110 E13 F1000 ; prime,G92 E0 ; zero extruder again,,M117 Printing...,
;   layerChangeGcode,
;   retractionGcode,
;   toolChangeGcode,
;   endingGcode,M104 S0 ; turn off temperature,M140 S0 ; turn off heatbed,M107 ; turn off fan,G1 X0 Y200; home X axis,M84 ; disable motors
;   exportFileFormat,gcode
;   celebration,0
;   celebrationSong,Funky Town
;   postProcessing,{REPLACE "; outer perimeter\n" "; outer perimeter\nM204 S600\n"},{REPLACE "; inner perimeter\n" "; inner perimeter\nM204 S1200\n"},{REPLACE "; solid layer\n" "; solid layer\nM204 S1500\n"},{REPLACE "; infill\n" "; infill\nM204 S2000\n"},c:\programs\curl\curl.exe -i -X POST -H "Content-Type: multipart/form-data" -H "x-api-key: cdef442b-53ec-43c3-a14a-8cfbe3209274" -F "a=upload" -F "filename=@[output_filepath]" "http://localhost:3344/printer/model/Original_Prusa_I3_MK3"
;   defaultSpeed,3600
;   outlineUnderspeed,1
;   solidInfillUnderspeed,1
;   supportUnderspeed,1
;   rapidXYspeed,3600
;   rapidZspeed,1002
;   minBridgingArea,50
;   bridgingExtraInflation,0
;   bridgingExtrusionMultiplier,0.8
;   bridgingSpeedMultiplier,1.1
;   filamentDiameter,1.75
;   filamentPricePerKg,25
;   filamentDensity,1.25
;   useMinPrintHeight,0
;   minPrintHeight,0
;   useMaxPrintHeight,0
;   maxPrintHeight,10
;   useDiaphragm,0
;   diaphragmLayerInterval,20
;   robustSlicing,1
;   mergeAllIntoSolid,0
;   onlyRetractWhenCrossingOutline,0
;   retractBetweenLayers,1
;   useRetractionMinTravel,0
;   retractionMinTravel,3
;   retractWhileWiping,1
;   onlyWipeOutlines,1
;   avoidCrossingOutline,0
;   maxMovementDetourFactor,3
;   toolChangeRetractionDistance,12
;   toolChangeExtraRestartDistance,-0.5
;   toolChangeRetractionSpeed,600
;   allowThinWallGapFill,1
;   thinWallAllowedOverlapPercentage,25
;   horizontalSizeCompensation,0
G90
M83
M106 S0
M117 Starting...
M107 ; start with the fan off
; preheat
M140 S60 T1 ; heat build platform
M104 S210 T0 ; heat extruder 1
; home and autolevel
G28 W ; home without mesh bed level
G80 ; probe bed
; park for preheat
G1 Y-3 X0 F3600 ; park location
G1 Z0.1 F1000; drop nozzle to bed to help restrict oozing
; wait for heating to finish
M109 S210 T0 ; wait for extruder 1 to heat
M190 S60 T1 ; wait for build platform to heat
G1 Z15 F3600 ; lift the head
G1 X10 F3600 ; move to prep location
; perform wipe and prime
; select tool
M117 Prime E1
G92 E0 ; zero the extruded length
G1 Z0.1 F1000
G1 X70 E9 F1000 ; prime
G1 X110 E13 F1000 ; prime
G92 E0 ; zero extruder again
M117 Printing...
G1 E-0.8000 F1800
G1 Z0.200 F1002
; layer 1, Z = 0.2
T0
; tool H0.200 W0.450
; skirt
G1 X105.809 Y88.216 F3600
G1 E0.8000 F540
G1 X108.216 Y85.809 E0.1273 F1800
G1 X108.298 Y85.775 E0.0033
G1 X141.702 Y85.775 E1.2499
G1 X141.784 Y85.809 E0.0033
G1 X144.191 Y88.216 E0.1273
G1 X144.225 Y88.298 E0.0033
G1 X144.225 Y121.702 E1.2499
G1 X144.191 Y121.784 E0.0033
G1 X141.784 Y124.191 E0.1273
G1 X141.702 Y124.225 E0.0033
G1 X108.298 Y124.225 E1.2499
G1 X108.216 Y124.191 E0.0033
G1 X105.809 Y121.784 E0.1273
G1 X105.775 Y121.702 E0.0033
G1 X105.775 Y88.409 E1.2457
G1 X105.775 Y88.298 F1800
G1 X105.809 Y88.216 F1800
G1 E-0.8000 F1800
; inner perimeter
M204 S1200
G1 X111.125 Y91.125 F3600
G1 E0.8000 F1800
G1 X138.875 Y91.125 E1.0383 F1800
G1 X138.875 Y118.875 E1.0383
G1 X111.125 Y118.875 E1.0383
G1 X111.125 Y91.325 E1.0309
G1 X111.125 Y91.125 F1800
G1 E-0.8000 F1800
; inner perimeter
M204 S1200
G1 X110.675 Y90.675 F3600
G1 E0.8000 F1800
G1 X139.325 Y90.675 E1.0720 F1800
G1 X139.325 Y119.325 E1.0720
G1 X110.675 Y119.325 E1.0720
G1 X110.675 Y90.875 E1.0645
G1 X110.675 Y90.675 F1800
G1 E-0.8000 F1800
; outer perimeter
M204 S600
G1 X110.225 Y90.225 F3600
G1 E0.8000 F1800
G1 X139.775 Y90.225 E1.1057 F1800
G1 X139.775 Y119.775 E1.1057
G1 X110.225 Y119.775 E1.1057
G1 X110.225 Y90.425 E1.0982
G1 X110.225 Y90.225 F1800
G1 X111.825 Y90.225 E-0.8000 F3600
G1 X112.225 Y90.225 F3600
; solid layer
M204 S1500
G1 X138.191 Y91.463 F3600
G1 E0.8000 F1800
G1 X138.537 Y91.809 E0.0183 F1800
G1 X138.537 Y92.445 E0.0238
G1 X137.555 Y91.463 E0.0520
G1 X136.918 Y91.463 E0.0238
G1 X138.537 Y93.082 E0.0857
G1 X138.537 Y93.718 E0.0238
G1 X136.282 Y91.463 E0.1194
G1 X135.646 Y91.463 E0.0238
G1 X138.537 Y94.354 E0.1530
G1 X138.537 Y94.991 E0.0238
G1 X135.009 Y91.463 E0.1867
G1 X134.373 Y91.463 E0.0238
G1 X138.537 Y95.627 E0.2204
G1 X138.537 Y96.264 E0.0238
G1 X133.736 Y91.463 E0.2541
G1 X133.100 Y91.463 E0.0238
G1 X138.537 Y96.900 E0.2877
G1 X138.537 Y97.536 E0.0238
G1 X132.464 Y91.463 E0.3214
G1 X131.827 Y91.463 E0.0238
G1 X138.537 Y98.173 E0.3551
G1 X138.537 Y98.809 E0.0238
G1 X131.191 Y91.463 E0.3888
G1 X130.554 Y91.463 E0.0238
G1 X138.537 Y99.446 E0.4224
G1 X138.537 Y100.082 E0.0238
G1 X129.918 Y91.463 E0.4561
G1 X129.282 Y91.463 E0.0238
G1 X138.537 Y100.718 E0.4898
G1 X138.537 Y101.355 E0.0238
G1 X128.645 Y91.463 E0.5235
G1 X128.009 Y91.463 E0.0238
G1 X138.537 Y101.991 E0.5571
G1 X138.537 Y102.628 E0.0238
G1 X127.372 Y91.463 E0.5908
G1 X126.736 Y91.463 E0.0238
G1 X138.537 Y103.264 E0.6245
G1 X138.537 Y103.900 E0.0238
G1 X126.100 Y91.463 E0.6582
G1 X125.463 Y91.463 E0.0238
G1 X138.537 Y104.537 E0.6918
G1 X138.537 Y105.173 E0.0238
G1 X124.827 Y91.463 E0.7255
G1 X124.190 Y91.463 E0.0238
G1 X138.537 Y105.810 E0.7592
G1 X138.537 Y106.446 E0.0238
G1 X123.554 Y91.463 E0.7929
G1 X122.918 Y91.463 E0.0238
G1 X138.537 Y107.082 E0.8265
G1 X138.537 Y107.719 E0.0238
G1 X122.281 Y91.463 E0.8602
G1 X121.645 Y91.463 E0.0238
G1 X138.537 Y108.355 E0.8939
G1 X138.537 Y108.992 E0.0238
G1 X121.008 Y91.463 E0.9276
G1 X120.372 Y91.463 E0.0238
G1 X138.537 Y109.628 E0.9613
G1 X138.537 Y110.264 E0.0238
G1 X119.736 Y91.463 E0.9949
G1 X119.099 Y91.463 E0.0238
G1 X138.537 Y110.901 E1.0286
G1 X138.537 Y111.537 E0.0238
G1 X118.463 Y91.463 E1.0623
G1 X117.826 Y91.463 E0.0238
G1 X138.537 Y112.174 E1.0960
G1 X138.537 Y112.810 E0.0238
G1 X117.190 Y91.463 E1.1296
G1 X116.554 Y91.463 E0.0238
G1 X138.537 Y113.446 E1.1633
G1 X138.537 Y114.083 E0.0238
G1 X115.917 Y91.463 E1.1970
G1 X115.281 Y91.463 E0.0238
G1 X138.537 Y114.719 E1.2307
G1 X138.537 Y115.356 E0.0238
G1 X114.644 Y91.463 E1.2643
G1 X114.008 Y91.463 E0.0238
G1 X138.537 Y115.992 E1.2980
G1 X138.537 Y116.628 E0.0238
G1 X113.372 Y91.463 E1.3317
G1 X112.735 Y91.463 E0.0238
G1 X138.537 Y117.265 E1.3654
G1 X138.537 Y117.901 E0.0238
G1 X112.099 Y91.463 E1.3990
G1 X111.463 Y91.463 E0.0238
G1 X138.537 Y118.537 E1.4327
G1 X137.901 Y118.537 E0.0238
G1 X111.463 Y92.099 E1.3990
G1 X111.463 Y92.735 E0.0238
G1 X137.265 Y118.537 E1.3654
G1 X136.628 Y118.537 E0.0238
G1 X111.463 Y93.372 E1.3317
G1 X111.463 Y94.008 E0.0238
G1 X135.992 Y118.537 E1.2980
G1 X135.356 Y118.537 E0.0238
G1 X111.463 Y94.644 E1.2643
G1 X111.463 Y95.281 E0.0238
G1 X134.719 Y118.537 E1.2307
G1 X134.083 Y118.537 E0.0238
G1 X111.463 Y95.917 E1.1970
G1 X111.463 Y96.554 E0.0238
G1 X133.446 Y118.537 E1.1633
G1 X132.810 Y118.537 E0.0238
G1 X111.463 Y97.190 E1.1296
G1 X111.463 Y97.826 E0.0238
G1 X132.174 Y118.537 E1.0960
G1 X131.537 Y118.537 E0.0238
G1 X111.463 Y98.463 E1.0623
G1 X111.463 Y99.099 E0.0238
G1 X130.901 Y118.537 E1.0286
G1 X130.264 Y118.537 E0.0238
G1 X111.463 Y99.736 E0.9949
G1 X111.463 Y100.372 E0.0238
G1 X129.628 Y118.537 E0.9613
G1 X128.992 Y118.537 E0.0238
G1 X111.463 Y101.008 E0.9276
G1 X111.463 Y101.645 E0.0238
G1 X128.355 Y118.537 E0.8939
G1 X127.719 Y118.537 E0.0238
G1 X111.463 Y102.281 E0.8602
G1 X111.463 Y102.918 E0.0238
G1 X127.082 Y118.537 E0.8266
G1 X126.446 Y118.537 E0.0238
G1 X111.463 Y103.554 E0.7929
G1 X111.463 Y104.190 E0.0238
G1 X125.810 Y118.537 E0.7592
G1 X125.173 Y118.537 E0.0238
G1 X111.463 Y104.827 E0.7255
G1 X111.463 Y105.463 E0.0238
G1 X124.537 Y118.537 E0.6918
G1 X123.900 Y118.537 E0.0238
G1 X111.463 Y106.100 E0.6582
G1 X111.463 Y106.736 E0.0238
G1 X123.264 Y118.537 E0.6245
G1 X122.628 Y118.537 E0.0238
G1 X111.463 Y107.372 E0.5908
G1 X111.463 Y108.009 E0.0238
G1 X121.991 Y118.537 E0.5571
G1 X121.355 Y118.537 E0.0238
G1 X111.463 Y108.645 E0.5235
G1 X111.463 Y109.282 E0.0238
G1 X120.718 Y118.537 E0.4898
G1 X120.082 Y118.537 E0.0238
G1 X111.463 Y109.918 E0.4561
G1 X111.463 Y110.554 E0.0238
G1 X119.446 Y118.537 E0.4224
G1 X118.809 Y118.537 E0.0238
G1 X111.463 Y111.191 E0.3888
G1 X111.463 Y111.827 E0.0238
G1 X118.173 Y118.537 E0.3551
G1 X117.536 Y118.537 E0.0238
G1 X111.463 Y112.464 E0.3214
G1 X111.463 Y113.100 E0.0238
G1 X116.900 Y118.537 E0.2877
G1 X116.264 Y118.537 E0.0238
G1 X111.463 Y113.736 E0.2541
G1 X111.463 Y114.373 E0.0238
G1 X115.627 Y118.537 E0.2204
G1 X114.991 Y118.537 E0.0238
G1 X111.463 Y115.009 E0.1867
G1 X111.463 Y115.646 E0.0238
G1 X114.354 Y118.537 E0.1530
G1 X113.718 Y118.537 E0.0238
G1 X111.463 Y116.282 E0.1194
G1 X111.463 Y116.918 E0.0238
G1 X113.082 Y118.537 E0.0857
G1 X112.445 Y118.537 E0.0238
G1 X111.463 Y117.555 E0.0520
G1 X111.463 Y118.191 E0.0238
G1 X111.666 Y118.395 E0.0108
G1 X111.809 Y118.537 F1800
G1 E-0.8000 F1800
; layer 2, Z = 0.4
M106 S255
; inner perimeter
M204 S1200
G1 X111.125 Y118.875 F3600
G1 Z0.400 F1002
G1 E0.8000 F1800
G1 X111.125 Y91.125 E1.0383 F3600
G1 X138.875 Y91.125 E1.0383
G1 X138.875 Y118.875 E1.0383
G1 X111.325 Y118.875 E1.0309
G1 X111.125 Y118.875 F3600
G1 E-0.8000 F1800
; inner perimeter
M204 S1200
G1 X110.675 Y119.325 F3600
G1 E0.8000 F1800
G1 X110.675 Y90.675 E1.0720 F3600
G1 X139.325 Y90.675 E1.0720
G1 X139.325 Y119.325 E1.0720
G1 X110.875 Y119.325 E1.0645
G1 X110.675 Y119.325 F3600
G1 E-0.8000 F1800
; outer perimeter
M204 S600
G1 X110.225 Y119.775 F3600
G1 E0.8000 F1800
G1 X110.225 Y90.225 E1.1057 F3600
G1 X139.775 Y90.225 E1.1057
G1 X139.775 Y119.775 E1.1057
G1 X110.425 Y119.775 E1.0982
G1 X110.225 Y119.775 F3600
G1 X110.225 Y118.175 E-0.8000 F3600
G1 X110.225 Y117.775 F3600
; solid layer
M204 S1500
G1 X111.463 Y91.809 F3600
G1 E0.8000 F1800
G1 X111.809 Y91.463 E0.0183 F3600
G1 X112.445 Y91.463 E0.0238
G1 X111.463 Y92.445 E0.0520
G1 X111.463 Y93.082 E0.0238
G1 X113.082 Y91.463 E0.0857
G1 X113.718 Y91.463 E0.0238
G1 X111.463 Y93.718 E0.1194
G1 X111.463 Y94.354 E0.0238
G1 X114.354 Y91.463 E0.1530
G1 X114.991 Y91.463 E0.0238
G1 X111.463 Y94.991 E0.1867
G1 X111.463 Y95.627 E0.0238
G1 X115.627 Y91.463 E0.2204
G1 X116.264 Y91.463 E0.0238
G1 X111.463 Y96.264 E0.2541
G1 X111.463 Y96.900 E0.0238
G1 X116.900 Y91.463 E0.2877
G1 X117.536 Y91.463 E0.0238
G1 X111.463 Y97.536 E0.3214
G1 X111.463 Y98.173 E0.0238
G1 X118.173 Y91.463 E0.3551
G1 X118.809 Y91.463 E0.0238
G1 X111.463 Y98.809 E0.3888
G1 X111.463 Y99.446 E0.0238
G1 X119.446 Y91.463 E0.4224
G1 X120.082 Y91.463 E0.0238
G1 X111.463 Y100.082 E0.4561
G1 X111.463 Y100.718 E0.0238
G1 X120.718 Y91.463 E0.4898
G1 X121.355 Y91.463 E0.0238
G1 X111.463 Y101.355 E0.5235
G1 X111.463 Y101.991 E0.0238
G1 X121.991 Y91.463 E0.5571
G1 X122.628 Y91.463 E0.0238
G1 X111.463 Y102.628 E0.5908
G1 X111.463 Y103.264 E0.0238
G1 X123.264 Y91.463 E0.6245
G1 X123.900 Y91.463 E0.0238
G1 X111.463 Y103.900 E0.6582
G1 X111.463 Y104.537 E0.0238
G1 X124.537 Y91.463 E0.6918
G1 X125.173 Y91.463 E0.0238
G1 X111.463 Y105.173 E0.7255
G1 X111.463 Y105.810 E0.0238
