; G-Code generated by Simplify3D(R) Version 3.1.1
; Mar 10, 2017 at 6:09:10 AM
; Settings Summary
;   processName,Process1
;   applyToModels,30mm-cube
;   profileName,PLA_AutoBedLevel_D6 (modified)
;   profileVersion,2017-02-17 00:27:34
;   baseProfile,Wanhao Duplicator 6(2) (modified)
;   printMaterial,
;   printQuality,
;   printExtruders,
;   extruderName,Primary Extruder
;   extruderToolheadNumber,0
;   extruderDiameter,0.4
;   extruderAutoWidth,0
;   extruderWidth,0.4
;   extrusionMultiplier,1
;   extruderUseRetract,1
;   extruderRetractionDistance,3
;   extruderExtraRestartDistance,0
;   extruderRetractionZLift,0
;   extruderRetractionSpeed,2400
;   extruderUseCoasting,1
;   extruderCoastingDistance,0.2
;   extruderUseWipe,0
;   extruderWipeDistance,2
;   primaryExtruder,0
;   layerHeight,0.2
;   topSolidLayers,4
;   bottomSolidLayers,4
;   perimeterOutlines,2
;   printPerimetersInsideOut,1
;   startPointOption,2
;   startPointOriginX,0
;   startPointOriginY,0
;   startPointOriginZ,300
;   sequentialIslands,0
;   spiralVaseMode,0
;   firstLayerHeightPercentage,100
;   firstLayerWidthPercentage,125
;   firstLayerUnderspeed,0.2
;   useRaft,0
;   raftExtruder,0
;   raftLayers,1
;   raftOffset,3
;   raftSeparationDistance,0.2
;   raftInfill,85
;   disableRaftBaseLayers,0
;   useSkirt,1
;   skirtExtruder,0
;   skirtLayers,1
;   skirtOutlines,2
;   skirtOffset,3
;   usePrimePillar,0
;   primePillarExtruder,999
;   primePillarWidth,12
;   primePillarLocation,7
;   primePillarSpeedMultiplier,1
;   useOozeShield,0
;   oozeShieldExtruder,999
;   oozeShieldOffset,2
;   oozeShieldOutlines,1
;   oozeShieldSidewallShape,1
;   oozeShieldSidewallAngle,30
;   oozeShieldSpeedMultiplier,1
;   infillExtruder,0
;   internalInfillPattern,Rectilinear
;   externalInfillPattern,Rectilinear
;   infillPercentage,0
;   outlineOverlapPercentage,35
;   infillExtrusionWidthPercentage,125
;   minInfillLength,3
;   infillLayerInterval,1
;   infillAngles,45,-45
;   overlapInfillAngles,0
;   generateSupport,0
;   supportExtruder,0
;   supportInfillPercentage,30
;   supportExtraInflation,0
;   denseSupportLayers,0
;   denseSupportInfillPercentage,70
;   supportLayerInterval,1
;   supportHorizontalPartOffset,0.3
;   supportUpperSeparationLayers,1
;   supportLowerSeparationLayers,1
;   supportType,0
;   supportGridSpacing,2
;   maxOverhangAngle,45
;   supportAngles,0
;   temperatureName,Primary Extruder,Heated Build Platform
;   temperatureNumber,0,1
;   temperatureSetpointCount,1,2
;   temperatureSetpointLayers,1,1,3
;   temperatureSetpointTemperatures,215,80,70
;   temperatureStabilizeAtStartup,1,1
;   temperatureHeatedBed,0,1
;   temperatureRelayBetweenLayers,0,0
;   temperatureRelayBetweenLoops,0,0
;   fanLayers,1,3
;   fanSpeeds,0,100
;   blipFanToFullPower,1
;   adjustSpeedForCooling,1
;   minSpeedLayerTime,15
;   minCoolingSpeedSlowdown,20
;   increaseFanForCooling,1
;   minFanLayerTime,10
;   maxCoolingFanSpeed,80
;   increaseFanForBridging,1
;   bridgingFanSpeed,45
;   use5D,1
;   relativeEdistances,0
;   allowEaxisZeroing,1
;   independentExtruderAxes,0
;   includeM10123,0
;   stickySupport,1
;   applyToolheadOffsets,0
;   gcodeXoffset,0
;   gcodeYoffset,0
;   gcodeZoffset,0
;   overrideMachineDefinition,1
;   machineTypeOverride,0
;   strokeXoverride,200
;   strokeYoverride,200
;   strokeZoverride,175
;   originOffsetXoverride,0
;   originOffsetYoverride,0
;   originOffsetZoverride,0
;   homeXdirOverride,-1
;   homeYdirOverride,-1
;   homeZdirOverride,-1
;   flipXoverride,1
;   flipYoverride,-1
;   flipZoverride,1
;   toolheadOffsets,0,0|0,0|0,0|0,0|0,0|0,0
;   overrideFirmwareConfiguration,1
;   firmwareTypeOverride,RepRap (Marlin/Repetier/Sprinter)
;   GPXconfigOverride,r2
;   baudRateOverride,250000
;   overridePrinterModels,1
;   printerModelsOverride
;   startingGcode,M107 ; start with the fan off,M190 S[bed1_temperature] ; heat build platform,; home and autolevel,G28 ; home all,G29 ; probe bed,M420 Z2 ; set fade leveling at 2mm (ok to send if no fade support),; park for preheat,G1 X0 Y5 F3600 ; park location,G1 Z0.1 F1000; drop nozzle to bed to help restrict oozing,; wait for heating to finish,M109 S[extruder0_temperature] ; wait for extruder 1 to heat,G92 E0 ; zero the extruded length,G1 X0 Y0 F1000.0 ;return to home position,G1 Z0.10 ; put extruder nozzle just off the bed,G1 X60.0 E9.0  F1000.0,G92 E0.0,
;   layerChangeGcode,
;   retractionGcode,
;   toolChangeGcode,
;   endingGcode,G28 X0 Y0 ; home the X-axis,G1 Z170 ;lower build plate,M104 S0 ; turn off heaters,M140 S0 ; turn off bed,M84 ; disable motors
;   exportFileFormat,gcode
;   celebration,0
;   celebrationSong,Funky Town
;   postProcessing,
;   defaultSpeed,4200
;   outlineUnderspeed,0.65
;   solidInfillUnderspeed,0.7
;   supportUnderspeed,0.7
;   rapidXYspeed,6000
;   rapidZspeed,1002
;   minBridgingArea,5
;   bridgingExtraInflation,0
;   bridgingExtrusionMultiplier,1
;   bridgingSpeedMultiplier,0.5
;   filamentDiameter,1.73
;   filamentPricePerKg,46
;   filamentDensity,1.25
;   useMinPrintHeight,0
;   minPrintHeight,76.6
;   useMaxPrintHeight,0
;   maxPrintHeight,0
;   useDiaphragm,0
;   diaphragmLayerInterval,20
;   robustSlicing,1
;   mergeAllIntoSolid,0
;   onlyRetractWhenCrossingOutline,1
;   retractBetweenLayers,0
;   useRetractionMinTravel,1
;   retractionMinTravel,0.02
;   retractWhileWiping,0
;   onlyWipeOutlines,1
;   avoidCrossingOutline,0
;   maxMovementDetourFactor,3
;   toolChangeRetractionDistance,12
;   toolChangeExtraRestartDistance,-0.5
;   toolChangeRetractionSpeed,600
;   allowThinWallGapFill,1
;   thinWallAllowedOverlapPercentage,10
;   horizontalSizeCompensation,0
G90
M82
M106 S0
M107 ; start with the fan off
M190 S80 ; heat build platform
; home and autolevel
G28 ; home all
G29 ; probe bed
M420 Z2 ; set fade leveling at 2mm (ok to send if no fade support)
; park for preheat
G1 X0 Y5 F3600 ; park location
G1 Z0.1 F1000; drop nozzle to bed to help restrict oozing
; wait for heating to finish
M109 S215 ; wait for extruder 1 to heat
G92 E0 ; zero the extruded length
G1 X0 Y0 F1000.0 ;return to home position
G1 Z0.10 ; put extruder nozzle just off the bed
G1 X60.0 E9.0  F1000.0
G92 E0.0
G92 E0
G1 E-3.0000 F2400
G1 Z0.200 F1002
; layer 1, Z = 0.2
T0
; tool H0.200 W0.500
; skirt
G1 X81.491 Y83.417 F6000
G1 E0.0000 F720
G92 E0
G1 X83.417 Y81.491 E0.1159 F840
G1 X83.638 Y81.400 E0.1260
G1 X116.362 Y81.400 E1.5182
G1 X116.583 Y81.491 E1.5283
G1 X118.509 Y83.417 E1.6442
G1 X118.600 Y83.638 E1.6544
G1 X118.600 Y116.362 E3.0465
G1 X118.509 Y116.583 E3.0567
G1 X116.583 Y118.509 E3.1726
G1 X116.362 Y118.600 E3.1827
G1 X83.638 Y118.600 E4.5749
G1 X83.417 Y118.509 E4.5850
G1 X81.491 Y116.583 E4.7009
G1 X81.400 Y116.362 E4.7110
G1 X81.400 Y83.638 E6.1032
G1 X81.415 Y83.602 E6.1048
G1 X81.491 Y83.417 F840
G1 X81.830 Y83.644 F6000
G92 E0
G1 X83.644 Y81.830 E0.1091 F840
G1 X83.718 Y81.800 E0.1125
G1 X116.282 Y81.800 E1.4979
G1 X116.356 Y81.830 E1.5013
G1 X118.170 Y83.644 E1.6104
G1 X118.200 Y83.718 E1.6138
G1 X118.200 Y116.282 E2.9991
G1 X118.170 Y116.356 E3.0025
G1 X116.356 Y118.170 E3.1116
G1 X116.282 Y118.200 E3.1150
G1 X83.718 Y118.200 E4.5004
G1 X83.644 Y118.170 E4.5038
G1 X81.830 Y116.356 E4.6129
G1 X81.800 Y116.282 E4.6163
G1 X81.800 Y83.838 E5.9965
G1 X81.800 Y83.718 F840
G1 X81.830 Y83.644 F840
G92 E0
G1 E-3.0000 F2400
; inner perimeter
G1 X85.750 Y85.750 F6000
G1 E0.0000 F2400
G92 E0
G1 X114.250 Y85.750 E1.2124 F693
G1 X114.250 Y114.250 E2.4249
G1 X85.750 Y114.250 E3.6373
G1 X85.750 Y85.950 E4.8413
G1 X85.750 Y85.750 F693
; outer perimeter
G1 X85.250 Y85.250 F6000
G92 E0
G1 X114.750 Y85.250 E1.2550 F546
G1 X114.750 Y114.750 E2.5100
G1 X85.250 Y114.750 E3.7650
G1 X85.250 Y85.450 E5.0114
G1 X85.250 Y85.250 F546
; solid layer
G1 X113.652 Y86.075 F6000
G92 E0
G1 X113.925 Y86.348 E0.0164 F588
G1 X113.925 Y87.055 E0.0465
G1 X112.945 Y86.075 E0.1055
G1 X112.238 Y86.075 E0.1355
G1 X113.925 Y87.762 E0.2370
G1 X113.925 Y88.469 E0.2671
G1 X111.531 Y86.075 E0.4112
G1 X110.824 Y86.075 E0.4412
G1 X113.925 Y89.176 E0.6278
G1 X113.925 Y89.883 E0.6579
G1 X110.117 Y86.075 E0.8870
G1 X109.410 Y86.075 E0.9171
G1 X113.925 Y90.590 E1.1888
G1 X113.925 Y91.298 E1.2189
G1 X108.702 Y86.075 E1.5331
G1 X107.995 Y86.075 E1.5631
G1 X113.925 Y92.005 E1.9199
G1 X113.925 Y92.712 E1.9500
G1 X107.288 Y86.075 E2.3493
G1 X106.581 Y86.075 E2.3793
G1 X113.925 Y93.419 E2.8212
G1 X113.925 Y94.126 E2.8513
G1 X105.874 Y86.075 E3.3356
G1 X105.167 Y86.075 E3.3657
G1 X113.925 Y94.833 E3.8926
G1 X113.925 Y95.540 E3.9227
G1 X104.460 Y86.075 E4.4922
G1 X103.753 Y86.075 E4.5223
G1 X113.925 Y96.247 E5.1343
G1 X113.925 Y96.954 E5.1643
G1 X103.046 Y86.075 E5.8189
G1 X102.338 Y86.075 E5.8490
G1 X113.925 Y97.662 E6.5461
G1 X113.925 Y98.369 E6.5761
G1 X101.631 Y86.075 E7.3158
G1 X100.924 Y86.075 E7.3458
G1 X113.925 Y99.076 E8.1280
G1 X113.925 Y99.783 E8.1581
G1 X100.217 Y86.075 E8.9828
G1 X99.510 Y86.075 E9.0129
G1 X113.925 Y100.490 E9.8801
G1 X113.925 Y101.197 E9.9102
G1 X98.803 Y86.075 E10.8200
G1 X98.096 Y86.075 E10.8501
G1 X113.925 Y101.904 E11.8024
G1 X113.925 Y102.611 E11.8325
G1 X97.389 Y86.075 E12.8274
G1 X96.682 Y86.075 E12.8575
G1 X113.925 Y103.318 E13.8949
G1 X113.925 Y104.025 E13.9250
G1 X95.975 Y86.075 E15.0050
G1 X95.267 Y86.075 E15.0350
G1 X113.925 Y104.733 E16.1575
G1 X113.925 Y105.440 E16.1876
G1 X94.560 Y86.075 E17.3527
G1 X93.853 Y86.075 E17.3827
G1 X113.925 Y106.147 E18.5903
G1 X113.925 Y106.854 E18.6204
G1 X93.146 Y86.075 E19.8706
G1 X92.439 Y86.075 E19.9006
G1 X113.925 Y107.561 E21.1933
G1 X113.925 Y108.268 E21.2234
G1 X91.732 Y86.075 E22.5586
G1 X91.025 Y86.075 E22.5887
G1 X113.925 Y108.975 E23.9664
G1 X113.925 Y109.682 E23.9965
G1 X90.318 Y86.075 E25.4168
G1 X89.611 Y86.075 E25.4469
G1 X113.925 Y110.389 E26.9098
G1 X113.925 Y111.097 E26.9398
G1 X88.903 Y86.075 E28.4452
G1 X88.196 Y86.075 E28.4753
G1 X113.925 Y111.804 E30.0232
G1 X113.925 Y112.511 E30.0533
G1 X87.489 Y86.075 E31.6438
G1 X86.782 Y86.075 E31.6739
G1 X113.925 Y113.218 E33.3069
G1 X113.925 Y113.925 E33.3369
G1 X86.075 Y86.075 E35.0125
G1 X86.075 Y86.782 E35.0426
G1 X113.218 Y113.925 E36.6756
G1 X112.511 Y113.925 E36.7057
G1 X86.075 Y87.489 E38.2961
G1 X86.075 Y88.196 E38.3262
G1 X111.804 Y113.925 E39.8742
G1 X111.097 Y113.925 E39.9042
G1 X86.075 Y88.903 E41.4096
G1 X86.075 Y89.611 E41.4397
G1 X110.389 Y113.925 E42.9025
G1 X109.682 Y113.925 E42.9326
G1 X86.075 Y90.318 E44.3529
G1 X86.075 Y91.025 E44.3830
G1 X108.975 Y113.925 E45.7608
G1 X108.268 Y113.925 E45.7909
G1 X86.075 Y91.732 E47.1261
G1 X86.075 Y92.439 E47.1562
G1 X107.561 Y113.925 E48.4488
G1 X106.854 Y113.925 E48.4789
G1 X86.075 Y93.146 E49.7290
G1 X86.075 Y93.853 E49.7591
G1 X106.147 Y113.925 E50.9667
G1 X105.440 Y113.925 E50.9968
G1 X86.075 Y94.560 E52.1618
G1 X86.075 Y95.267 E52.1919
G1 X104.733 Y113.925 E53.3144
G1 X104.026 Y113.925 E53.3445
G1 X86.075 Y95.974 E54.4245
G1 X86.075 Y96.682 E54.4546
G1 X103.318 Y113.925 E55.4920
G1 X102.611 Y113.925 E55.5221
G1 X86.075 Y97.389 E56.5170
G1 X86.075 Y98.096 E56.5470
G1 X101.904 Y113.925 E57.4994
G1 X101.197 Y113.925 E57.5295
G1 X86.075 Y98.803 E58.4393
G1 X86.075 Y99.510 E58.4693
G1 X100.490 Y113.925 E59.3366
G1 X99.783 Y113.925 E59.3667
G1 X86.075 Y100.217 E60.1914
G1 X86.075 Y100.924 E60.2215
G1 X99.076 Y113.925 E61.0036
G1 X98.369 Y113.925 E61.0337
G1 X86.075 Y101.631 E61.7734
G1 X86.075 Y102.338 E61.8034
G1 X97.662 Y113.925 E62.5005
G1 X96.954 Y113.925 E62.5306
G1 X86.075 Y103.046 E63.1852
G1 X86.075 Y103.753 E63.2152
G1 X96.247 Y113.925 E63.8272
G1 X95.540 Y113.925 E63.8573
G1 X86.075 Y104.460 E64.4268
G1 X86.075 Y105.167 E64.4569
G1 X94.833 Y113.925 E64.9838
G1 X94.126 Y113.925 E65.0139
G1 X86.075 Y105.874 E65.4982
G1 X86.075 Y106.581 E65.5283
G1 X93.419 Y113.925 E65.9702
G1 X92.712 Y113.925 E66.0002
G1 X86.075 Y107.288 E66.3995
G1 X86.075 Y107.995 E66.4296
G1 X92.005 Y113.925 E66.7864
G1 X91.298 Y113.925 E66.8164
G1 X86.075 Y108.702 E67.1307
G1 X86.075 Y109.410 E67.1607
G1 X90.590 Y113.925 E67.4324
G1 X89.883 Y113.925 E67.4625
G1 X86.075 Y110.117 E67.6916
G1 X86.075 Y110.824 E67.7217
G1 X89.176 Y113.925 E67.9083
G1 X88.469 Y113.925 E67.9384
G1 X86.075 Y111.531 E68.0824
G1 X86.075 Y112.238 E68.1125
G1 X87.762 Y113.925 E68.2140
G1 X87.055 Y113.925 E68.2441
G1 X86.075 Y112.945 E68.3030
G1 X86.075 Y113.652 E68.3331
G1 X86.207 Y113.784 E68.3410
G1 X86.348 Y113.925 F588
; layer 2, Z = 0.4
; tool H0.200 W0.400
; inner perimeter
G1 X85.600 Y114.400 F6000
G1 Z0.400 F1002
G92 E0
G1 X85.600 Y85.600 E0.9802 F3465
G1 X114.400 Y85.600 E1.9603
G1 X114.400 Y114.400 E2.9405
G1 X85.800 Y114.400 E3.9139
G1 X85.600 Y114.400 F3465
; outer perimeter
G1 X85.200 Y114.800 F6000
G92 E0
G1 X85.200 Y85.200 E1.0074 F2730
G1 X114.800 Y85.200 E2.0148
G1 X114.800 Y114.800 E3.0222
G1 X85.400 Y114.800 E4.0228
G1 X85.200 Y114.800 F2730
; solid layer
G1 X85.860 Y86.421 F6000
G92 E0
G1 X86.421 Y85.860 E0.0270 F2940
G1 X86.987 Y85.860 E0.0463
G1 X85.860 Y86.987 E0.1005
G1 X85.860 Y87.553 E0.1198
G1 X87.553 Y85.860 E0.2013
G1 X88.119 Y85.860 E0.2205
G1 X85.860 Y88.119 E0.3292
G1 X85.860 Y88.684 E0.3485
G1 X88.684 Y85.860 E0.4844
G1 X89.250 Y85.860 E0.5036
G1 X85.860 Y89.250 E0.6668
G1 X85.860 Y89.816 E0.6861
G1 X89.816 Y85.860 E0.8764
G1 X90.381 Y85.860 E0.8957
G1 X85.860 Y90.381 E1.1133
G1 X85.860 Y90.947 E1.1326
G1 X90.947 Y85.860 E1.3774
G1 X91.513 Y85.860 E1.3966
G1 X85.860 Y91.513 E1.6687
G1 X85.860 Y92.078 E1.6880
G1 X92.078 Y85.860 E1.9873
G1 X92.644 Y85.860 E2.0065
G1 X85.860 Y92.644 E2.3330
G1 X85.860 Y93.210 E2.3523
G1 X93.210 Y85.860 E2.7060
G1 X93.775 Y85.860 E2.7253
G1 X85.860 Y93.775 E3.1062
G1 X85.860 Y94.341 E3.1255
G1 X94.341 Y85.860 E3.5337
G1 X94.907 Y85.860 E3.5530
G1 X85.860 Y94.907 E3.9884
G1 X85.860 Y95.472 E4.0076
G1 X95.472 Y85.860 E4.4703
G1 X96.038 Y85.860 E4.4895
G1 X85.860 Y96.038 E4.9794
G1 X85.860 Y96.604 E4.9987
G1 X96.604 Y85.860 E5.5158
G1 X97.169 Y85.860 E5.5350
G1 X85.860 Y97.169 E6.0794
G1 X85.860 Y97.735 E6.0986
G1 X97.735 Y85.860 E6.6702
G1 X98.301 Y85.860 E6.6894
G1 X85.860 Y98.301 E7.2882
G1 X85.860 Y98.867 E7.3075
G1 X98.867 Y85.860 E7.9335
G1 X99.432 Y85.860 E7.9527
G1 X85.860 Y99.432 E8.6060
G1 X85.860 Y99.998 E8.6252
G1 X99.998 Y85.860 E9.3057
G1 X100.564 Y85.860 E9.3249
G1 X85.860 Y100.564 E10.0326
G1 X85.860 Y101.129 E10.0519
G1 X101.129 Y85.860 E10.7868
G1 X101.695 Y85.860 E10.8061
G1 X85.860 Y101.695 E11.5682
G1 X85.860 Y102.261 E11.5875
G1 X102.261 Y85.860 E12.3768
G1 X102.826 Y85.860 E12.3961
G1 X85.860 Y102.826 E13.2127
G1 X85.860 Y103.392 E13.2320
G1 X103.392 Y85.860 E14.0758
G1 X103.958 Y85.860 E14.0950
G1 X85.860 Y103.958 E14.9661
G1 X85.860 Y104.523 E14.9853
G1 X104.523 Y85.860 E15.8836
G1 X105.089 Y85.860 E15.9029
G1 X85.860 Y105.089 E16.8284
G1 X85.860 Y105.655 E16.8476
G1 X105.655 Y85.860 E17.8004
G1 X106.220 Y85.860 E17.8196
G1 X85.860 Y106.220 E18.7996
G1 X85.860 Y106.786 E18.8188
G1 X106.786 Y85.860 E19.8260
G1 X107.352 Y85.860 E19.8453
G1 X85.860 Y107.352 E20.8797
G1 X85.860 Y107.917 E20.8990
G1 X107.917 Y85.860 E21.9606
G1 X108.483 Y85.860 E21.9799
G1 X85.860 Y108.483 E23.0687
G1 X85.860 Y109.049 E23.0880
G1 X109.049 Y85.860 E24.2041
G1 X109.615 Y85.860 E24.2233
G1 X85.860 Y109.615 E25.3667
G1 X85.860 Y110.180 E25.3859
G1 X110.180 Y85.860 E26.5565
G1 X110.746 Y85.860 E26.5757
G1 X85.860 Y110.746 E27.7735
G1 X85.860 Y111.312 E27.7927
G1 X111.312 Y85.860 E29.0177
G1 X111.877 Y85.860 E29.0370
G1 X85.860 Y111.877 E30.2892
G1 X85.860 Y112.443 E30.3085
G1 X112.443 Y85.860 E31.5879
G1 X113.009 Y85.860 E31.6072
